X: 7282
T: Claude Flanagan's
R: reel
M: 4/4
K: Gmajor
||ge|d2BG DGBG|dGBG A2 g/f/e|d2BG DGBG|AF~F2 A3B|
dB~B2 DGBG|dGBG A2 g/f/e|dcBG DG~G2|AF~F2 A2Bc||
dg~g2 dgeg|dg~g2 ~B2Bc|dg~g2 dged|BAGA B3c|
dg~g2 dgeg|dg~g2 ~B2Bc|dega b2ag|fdcA G2||

